static/images/mobile/copyright/wikipedia-tagline-sa.svg

<?xml version="1.0" encoding="UTF-8"?>
<svg width="93px" height="13px" viewBox="0 0 93 13" version="1.1" xmlns="http://www.w3.org/2000/svg" xmlns:xlink="http://www.w3.org/1999/xlink">
    <title>sa-tagline</title>
    <g id="Page-1" stroke="none" stroke-width="1" fill="none" fill-rule="evenodd">
        <path d="M29.3067415,7.935577 L26.7625104,7.935577 L26.7625104,9.29250481 C26.7382774,9.52269622 26.6676043,9.66404048 26.5504912,9.71653759 C26.3727969,9.70039051 26.2294314,9.62365368 26.1203956,9.48634619 L25.4055874,8.58981073 C25.1228941,8.23443169 24.9815489,7.93356339 24.9815489,7.68721535 C24.9815489,7.38433343 25.1451059,7.15414202 25.4722218,6.99663159 C25.5045284,6.98856759 26.7827,6.98452127 29.3067415,6.98452127 L29.3067415,7.935577 M41.4830758,0.0899350697 C40.8328817,0.0899350697 40.3159592,0.2207341 39.9323066,0.507449851 C39.4598058,0.862847976 39.216567,1.35895097 39.216567,1.96875159 C39.216567,2.82087301 39.4389921,3.55214896 39.8428391,4.14579294 L36.5921883,4.14579294 L0,4.14579294 L0.835029563,4.98082251 L2.80331353,4.98082251 C3.06581056,5.11005645 3.22144671,5.22157823 3.31029577,5.33869232 C3.46375416,5.54061678 3.54887278,5.87457135 3.54887564,6.3228343 C3.54887278,6.71457292 3.43175773,7.00751083 3.16118334,7.21750884 C2.93098907,7.04386086 2.63711306,6.94911602 2.32615378,6.94910648 C1.92230676,6.94911602 1.72970314,7.24858148 1.72970409,7.81395852 C1.72970314,8.35107817 2.19039802,9.22990145 3.13136086,10.4979821 C3.86231902,11.4833647 4.59359115,12.3559849 5.30840222,13.0627158 L5.57680458,12.7943134 C4.63987755,11.7847006 3.74489382,10.5501739 2.89278098,9.09632535 C3.24008648,8.938834 3.49295538,8.63376669 3.63834309,8.20165082 C4.26026261,8.5570394 4.88715509,8.73845554 5.51715961,8.73845554 C5.97350088,8.73845554 6.39008329,8.64619193 6.76970395,8.44023069 L6.76970395,7.30697629 C6.24873712,7.72698184 5.78400357,7.93324846 5.36804719,7.93324846 C4.8874662,7.93324846 4.42180123,7.78724712 4.02603539,7.45608871 C4.20776264,6.96743895 4.32425642,6.54526709 4.32426023,6.17372188 C4.32425642,5.72545893 4.22143135,5.32410077 4.05585788,4.98082251 L13.1218931,4.98082251 L13.1218931,7.36662126 C12.6897725,6.64778009 12.0781014,6.25760657 11.3027216,6.23336685 C10.5232964,6.20509991 9.82743811,6.49245505 9.18532519,7.0982189 C9.01974789,7.28803305 8.89610721,7.55861125 8.82745538,7.87360349 C8.82745442,8.48341365 9.00887342,9.00592266 9.36426009,9.45419516 C9.81252782,10.0155354 10.331002,10.316566 10.9448518,10.3488697 C11.2477327,10.3650263 11.6298318,10.2839473 12.0781062,10.1102898 C12.4698324,9.95683524 12.8190026,9.77540956 13.1218931,9.5734851 L13.1218931,11.7505265 L14.1955026,12.8241359 L14.1955026,4.98082251 L20.6968042,4.98082251 L20.6968042,6.56141418 L18.1320705,6.56141418 C17.7039914,6.56142372 17.3001444,6.68101904 16.9689936,6.91928399 C16.6176456,7.1696688 16.4073346,7.49151305 16.3427214,7.90342598 C16.3184894,8.06092687 16.312897,8.24235255 16.312899,8.44023069 C16.312898,8.70678167 16.4116834,9.0969552 16.5813013,9.5734851 C16.7186078,9.96118694 16.9127632,10.3094181 17.2075735,10.676917 L18.9074551,12.7943134 L19.1162125,12.5557335 L17.5654433,10.3786922 C17.2544802,9.94657631 17.0802033,9.52036768 17.0882835,9.09632535 C17.096359,8.60363882 17.1966981,8.25291686 17.3865084,8.02271591 C17.6691988,7.67541996 18.1997881,7.48592074 18.9671001,7.48591119 L20.6968042,7.48591119 L20.6968042,11.8101714 L21.7107686,12.8241359 L21.7107686,4.98082251 L36.5623658,4.98082251 L36.5623658,7.48591119 C36.3060108,7.11696173 36.0145607,6.77968614 35.6975138,6.50176921 C35.2653932,6.13023354 34.8817424,5.93515155 34.5344369,5.93514201 C34.4940482,5.93515155 34.4337801,5.95689095 34.3853245,5.96496449 C34.1389745,6.00535129 33.6549828,6.20913668 32.9240227,6.62105915 L31.3732536,7.51573368 L32.2082831,8.35076324 C32.7373187,8.02768792 33.1088592,7.78849728 33.37136,7.63502362 C34.1427031,7.15849372 34.6332214,6.91929353 34.8028393,6.91928399 C35.1339891,6.91929353 35.6509134,7.28772766 36.3536085,8.02271591 L33.311715,9.90153243 L34.1169221,10.736562 L36.5623658,9.0068579 L36.5623658,11.6908815 L37.6956202,12.8241359 L37.6956202,4.98082251 L39.8130166,4.98082251 L39.8130166,11.8101714 L40.8269811,12.8241359 L40.8269811,4.98082251 L48.0738448,4.98082251 L48.0738448,7.36662126 C47.6417251,6.64778009 47.0300502,6.25760657 46.2546733,6.23336685 C45.4752471,6.20509991 44.7793869,6.49245505 44.1372769,7.0982189 C43.9716986,7.28803305 43.848056,7.55861125 43.7794071,7.87360349 C43.7794061,8.48341365 43.9608232,9.00592266 44.3162118,9.45419516 C44.7644786,10.0155354 45.2829594,10.316566 45.8968035,10.3488697 C46.1996854,10.3650263 46.5817882,10.2839473 47.0300579,10.1102898 C47.4217841,9.95683524 47.7709591,9.77540956 48.0738448,9.5734851 L48.0738448,11.7505265 L49.1474543,12.8241359 L49.1474543,4.98082251 L51.2052057,4.98082251 L50.3701761,4.14579294 L46.9405904,4.14579294 C46.4366267,2.87682476 45.7149016,1.90439228 44.7933715,1.19336699 C44.2522123,0.777417294 43.6983224,0.46428598 43.1531349,0.29869246 C42.6846699,0.153320971 42.1373028,0.0899350697 41.4830758,0.0899350697 Z M42.049703,0.954787117 C42.6756602,0.954787117 43.2848463,1.10981632 43.898697,1.3723019 C44.4075373,1.59039253 44.9462058,1.93304095 45.4792887,2.44591134 C45.8992818,2.8497698 46.164888,3.23590656 46.3143182,3.57916574 C46.4496426,3.86080451 46.5456901,4.02800129 46.6125431,4.14579294 L40.4989338,4.14579294 C40.1072009,3.80657054 39.9024841,3.29120938 39.9024841,2.62484624 C39.9024841,2.09986554 40.145722,1.66556428 40.6182237,1.34247941 C40.9937981,1.08403061 41.4722003,0.954787117 42.049703,0.954787117 Z M11.7798813,7.21750884 C12.4502612,7.21750884 12.8733664,7.36041818 13.0026032,7.63502362 C13.0026032,7.88541797 12.8444763,8.17276357 12.5254434,8.49987566 C11.8914012,9.1541094 11.1834278,9.48401765 10.408047,9.48401765 C9.79016048,9.48401765 9.48355003,9.2970092 9.48355003,8.91739044 C9.48355003,8.63066515 9.60066221,8.32716292 9.87124233,8.0525384 C10.4285468,7.48716135 11.0610306,7.21750884 11.7798813,7.21750884 Z M46.7616555,7.21750884 C47.4320363,7.21750884 47.8253228,7.36041818 47.9545549,7.63502362 C47.9545549,7.88541797 47.7964251,8.17276357 47.4773951,8.49987566 C46.8433519,9.1541094 46.1353766,9.48401765 45.3599987,9.48401765 C44.7421122,9.48401765 44.4355017,9.2970092 44.4355017,8.91739044 C44.4355017,8.63066515 44.5824421,8.32716292 44.8530165,8.0525384 C45.4103219,7.48716135 46.0428096,7.21750884 46.7616555,7.21750884 Z M53.0541997,4.02650301 C52.5695867,4.03458609 52.1682286,4.24086225 51.8613003,4.65277518 C51.5786118,5.0283667 51.443776,5.46419488 51.4437855,5.96496449 C51.443776,6.43343039 51.5689827,6.84442717 51.8314778,7.18768635 C52.1101296,7.55923156 52.4826005,7.76954449 52.9349098,7.81395852 C53.4639463,7.81396807 53.8805354,7.67665103 54.1874541,7.42626623 C54.1874541,8.39146497 53.8534995,9.0320233 53.2033121,9.33490523 C53.2033121,9.30260151 53.168823,9.2255593 53.0840222,9.09632535 C53.0032486,8.9670914 52.9414278,8.86427302 52.9050873,8.82792299 C52.727393,8.65023824 52.5419401,8.55392832 52.3682826,8.52969815 C52.4127061,8.53778123 52.2682508,8.55953018 51.9209453,8.55952063 C51.5090228,8.64837732 51.2946731,8.92764938 51.2946731,9.42437268 C51.2946731,9.88880181 51.6422935,10.2034887 52.3086376,10.3488697 C52.6317129,10.4175234 52.9150313,10.3845994 53.1734896,10.2594022 L54.9330162,12.8241359 L55.2014186,12.6153785 L53.5910044,10.0804673 C54.5158068,9.32932246 55.0053918,8.38214127 55.0821286,7.24733132 C55.0982757,6.98079943 55.1119511,6.81459514 55.1119511,6.77017157 C55.0917577,6.21286807 54.9858187,5.7698825 54.7839038,5.39833729 C54.2750511,4.47353489 53.7043871,4.01842946 53.0541997,4.02650301 Z M54.366389,4.14579294 L55.2014186,4.98082251 L60.3905309,4.98082251 L60.3905309,7.36662126 C59.9584131,6.64778009 59.3467363,6.25760657 58.5713593,6.23336685 C57.7919351,6.20509991 57.096073,6.49245505 56.4539629,7.0982189 C56.2883866,7.28803305 56.1647421,7.55861125 56.0960931,7.87360349 C56.0960941,8.48341365 56.2775092,9.00592266 56.6328978,9.45419516 C57.0811665,10.0155354 57.5996454,10.316566 58.2134895,10.3488697 C58.5163733,10.3650263 58.8984743,10.2839473 59.3467439,10.1102898 C59.738472,9.95683524 60.0876451,9.77540956 60.3905309,9.5734851 L60.3905309,11.7505265 L61.4641403,12.8241359 L61.4641403,4.98082251 L68.5320691,4.98082251 L68.5320691,7.57537865 C68.1362947,6.929228 67.561592,6.62106869 66.802365,6.62105915 C66.2046699,6.62106869 65.7029698,6.79595728 65.3112408,7.18768635 C64.9195088,7.57537865 64.7147901,8.08112027 64.7147911,8.67881057 C64.7147901,9.26439056 64.9291398,9.74030969 65.3410633,10.1401123 C65.7570235,10.5399245 66.2764309,10.7663845 66.86201,10.7663845 C67.1325834,10.7663845 67.4174506,10.6949346 67.7566845,10.5576271 C68.0959107,10.4162828 68.3584106,10.2444862 68.5320691,10.0506449 L68.5320691,11.8101714 L69.5460336,12.8241359 L69.5460336,8.85774548 C69.8085268,8.48217304 70.0741339,8.16189387 70.3810631,7.90342598 C70.6920176,7.64093085 70.9722249,7.50611414 71.1862702,7.48591119 C71.6385699,7.44149717 71.956365,7.51294707 72.1704122,7.69466859 C72.5055978,7.98544974 72.6773849,8.31938522 72.6773944,8.67881057 C72.6773849,9.07861318 72.4791918,9.44705685 72.0511223,9.78224249 C71.8572675,9.93570661 71.4614988,10.1419732 70.8880454,10.4085147 L71.3353826,11.2733667 C71.9047974,11.0431753 72.3213798,10.7517834 72.587927,10.4085147 C72.943306,9.96427894 73.1247221,9.47781457 73.1247317,8.97703541 C73.1247221,8.35107817 72.9022989,7.82452284 72.4984595,7.39644374 C72.0946049,6.96432787 71.5953889,6.77017157 70.9775128,6.77017157 C70.7392364,6.77017157 70.4767375,6.81273422 70.2021282,6.88946151 C70.0688527,6.92581154 69.9517377,6.96743895 69.8144359,7.06839641 C69.7578915,7.10879276 69.6671816,7.19793574 69.5460336,7.30697629 L69.5460336,4.98082251 L76.3753825,4.98082251 L76.3753825,11.8101714 L77.389347,12.8241359 L77.389347,4.98082251 L79.4470984,4.98082251 L78.6120688,4.14579294 L54.366389,4.14579294 Z M52.9349098,4.47384027 C53.3387491,4.46576673 53.6316966,4.6776352 53.8295843,5.12993493 C53.9790021,5.4732132 54.0383417,5.88420043 54.0383417,6.35265679 C54.0383417,6.89785952 53.8923308,7.2085096 53.5611819,7.2771538 C53.0482925,7.2771538 52.6717848,6.99943729 52.45775,6.44212424 C52.3406264,6.13924232 52.2788151,5.82455546 52.2788151,5.51762723 C52.2788151,4.82302578 52.5108674,4.48192336 52.9349098,4.47384027 Z M59.0783415,7.21750884 C59.7487243,7.21750884 60.1420089,7.36041818 60.2712409,7.63502362 C60.2712409,7.88541797 60.1131111,8.17276357 59.7940812,8.49987566 C59.1600399,9.1541094 58.4520627,9.48401765 57.6766848,9.48401765 C57.0588001,9.48401765 56.7521878,9.2970092 56.7521878,8.91739044 C56.7521878,8.63066515 56.8991282,8.32716292 57.1697025,8.0525384 C57.7270099,7.48716135 58.3594956,7.21750884 59.0783415,7.21750884 Z M66.8918325,7.48591119 C67.022578,7.47152006 67.161943,7.48591119 67.3093472,7.48591119 C67.7697281,7.48592074 68.1766796,7.61824668 68.5320691,7.93324846 L68.5320691,8.14200585 C68.5320691,8.56201141 68.2487507,8.99381235 67.667217,9.45419516 C67.1139446,9.8903478 66.6041662,10.1102898 66.1760928,10.1102898 C65.8772439,10.1102898 65.6597898,10.0332476 65.4901757,9.87170994 C65.2842135,9.66978548 65.1975412,9.39766128 65.2217733,9.06650287 C65.2621563,8.54150308 65.4932801,8.1289603 65.937513,7.81395852 C66.1798185,7.64131258 66.4995957,7.52907507 66.8918325,7.48591119 Z M77.068562,4.13740448 C76.7495234,3.64471795 76.4930883,3.26914551 76.2992373,3.01067762 C75.4955858,1.93242064 75.0311662,1.3246241 74.905969,1.18730706 C74.1911646,0.395784926 73.5369309,-1.77635684e-15 72.9432774,-1.77635684e-15 C72.5152078,-1.77635684e-15 72.0164537,0.0848199172 71.4470275,0.254421579 L72.5495252,1.37509805 C72.9331807,1.31857371 73.2118324,1.29029722 73.3854899,1.29028768 C73.9468398,1.29029722 74.5849169,1.63761226 75.2997213,2.33221371 C75.8731814,2.88952675 76.3416377,3.49126337 76.7051094,4.13740448 L77.068562,4.13740448 M81.2960924,4.02650301 C80.8114794,4.03458609 80.4101213,4.24086225 80.103193,4.65277518 C79.8205045,5.0283667 79.6856687,5.46419488 79.6856783,5.96496449 C79.6856687,6.43343039 79.8108754,6.84442717 80.0733705,7.18768635 C80.3520223,7.55923156 80.7244932,7.76954449 81.1768025,7.81395852 C81.705839,7.81396807 82.1224281,7.67665103 82.4293468,7.42626623 C82.4293468,8.39146497 82.0953922,9.0320233 81.4452048,9.33490523 C81.4452048,9.30260151 81.4107157,9.2255593 81.3259149,9.09632535 C81.2451413,8.9670914 81.1833205,8.86427302 81.14698,8.82792299 C80.9692857,8.65023824 80.7838328,8.55392832 80.6101753,8.52969815 C80.6545988,8.53778123 80.5101435,8.55953018 80.162838,8.55952063 C79.7509155,8.64837732 79.5365658,8.92764938 79.5365658,9.42437268 C79.5365658,9.88880181 79.8841862,10.2034887 80.5505303,10.3488697 C80.8736056,10.4175234 81.156924,10.3845994 81.4153823,10.2594022 L83.1749089,12.8241359 L83.4433113,12.6153785 L81.8328971,10.0804673 C82.7576995,9.32932246 83.2472845,8.38214127 83.3240213,7.24733132 C83.3401684,6.98079943 83.3538438,6.81459514 83.3538438,6.77017157 C83.3336504,6.21286807 83.2277114,5.7698825 83.0257965,5.39833729 C82.5169438,4.47353489 81.9462798,4.01842946 81.2960924,4.02650301 Z M81.1768025,4.47384027 C81.5806419,4.46576673 81.8735893,4.6776352 82.071477,5.12993493 C82.2208948,5.4732132 82.2802344,5.88420043 82.2802344,6.35265679 C82.2802344,6.89785952 82.1342235,7.2085096 81.8030746,7.2771538 C81.2901852,7.2771538 80.9136775,6.99943729 80.6996427,6.44212424 C80.5825191,6.13924232 80.5207078,5.82455546 80.5207078,5.51762723 C80.5207078,4.82302578 80.7527601,4.48192336 81.1768025,4.47384027 Z M83.2595284,4.97336927 C83.0939445,4.65029395 82.8718266,4.3716422 82.5931844,4.13740448 L87.9542364,4.13740448 L88.7962611,4.97336927 L86.7063587,4.97336927 L86.7063587,12.8241359 L85.712893,11.80644 L85.712893,4.97336927 L83.2595284,4.97336927 M92.0616371,6.43326816 L91.1832719,7.31163337 L90.3049067,6.43326816 L91.1832719,5.55490295 L92.0616371,6.43326816 M92.067697,10.8372141 L91.1832719,11.7216392 L90.3049067,10.8372141 L91.1832719,9.95884886 L92.067697,10.8372141" id="sa-tagline" fill="#000000" fill-rule="nonzero"></path>
    </g>
</svg>

<svg xmlns="http://www.w3.org/2000/svg" width="93" height="13"><path fill="#000" fill-rule="nonzero" d="M29.307 7.936h-2.544v1.357c-.025.23-.095.371-.213.424a.596.596 0 0 1-.43-.23l-.714-.897c-.283-.356-.424-.656-.424-.903 0-.303.163-.533.49-.69.033-.008 1.31-.012 3.835-.012v.95M41.483.09c-.65 0-1.167.13-1.55.417-.473.356-.716.852-.716 1.462 0 .852.222 1.583.626 2.177H0l.835.835h1.968c.263.13.418.24.507.358.154.202.239.536.239.984 0 .392-.117.685-.388.895a1.385 1.385 0 0 0-.835-.269c-.404 0-.596.3-.596.865 0 .537.46 1.416 1.401 2.684.731.985 1.463 1.858 2.177 2.565l.269-.269c-.937-1.01-1.832-2.244-2.684-3.698.347-.157.6-.462.745-.894.622.355 1.25.536 1.88.536.456 0 .872-.092 1.252-.298V7.307c-.521.42-.986.626-1.402.626a2.05 2.05 0 0 1-1.342-.477c.182-.489.298-.91.298-1.282 0-.449-.103-.85-.268-1.193h9.066v2.386c-.432-.72-1.044-1.11-1.82-1.134-.779-.028-1.475.26-2.117.865-.165.19-.289.46-.358.776 0 .61.182 1.132.537 1.58.449.562.967.863 1.58.895.304.016.686-.065 1.134-.239.392-.153.741-.335 1.044-.537v2.178l1.074 1.073V4.981h6.5v1.58h-2.564c-.428 0-.832.12-1.163.358-.351.25-.562.573-.626.984-.025.158-.03.34-.03.537 0 .267.099.657.268 1.133.138.388.332.736.627 1.104l1.7 2.117.208-.238-1.55-2.177c-.312-.432-.486-.859-.478-1.283.008-.492.109-.843.299-1.073.282-.348.813-.537 1.58-.537h1.73v4.324l1.014 1.014V4.981h14.851v2.505a5.432 5.432 0 0 0-.864-.984c-.433-.372-.816-.567-1.164-.567-.04 0-.1.022-.149.03-.246.04-.73.244-1.461.656l-1.55.895.834.835c.53-.323.9-.563 1.163-.716.772-.477 1.262-.716 1.432-.716.331 0 .848.369 1.55 1.104l-3.041 1.879.805.835 2.445-1.73v2.684l1.134 1.133V4.981h2.117v6.83l1.014 1.013V4.981h7.247v2.386c-.432-.72-1.044-1.11-1.82-1.134-.779-.028-1.475.26-2.117.865-.165.19-.289.46-.358.776 0 .61.182 1.132.537 1.58.448.562.967.863 1.58.895.304.016.686-.065 1.134-.239.392-.153.741-.335 1.044-.537v2.178l1.073 1.073V4.981h2.058l-.835-.835h-3.43c-.503-1.27-1.225-2.242-2.147-2.953-.54-.416-1.095-.729-1.64-.894-.468-.146-1.016-.21-1.67-.21Zm.567.865c.626 0 1.235.155 1.849.417.509.218 1.047.561 1.58 1.074.42.404.686.79.835 1.133.136.282.232.449.299.567h-6.114c-.392-.34-.597-.855-.597-1.521 0-.525.244-.96.716-1.283.376-.258.854-.387 1.432-.387ZM11.78 7.218c.67 0 1.093.142 1.223.417 0 .25-.159.538-.478.865-.634.654-1.342.984-2.117.984-.618 0-.924-.187-.924-.567 0-.286.117-.59.387-.864.558-.566 1.19-.835 1.909-.835Zm34.982 0c.67 0 1.063.142 1.193.417 0 .25-.159.538-.478.865-.634.654-1.342.984-2.117.984-.618 0-.924-.187-.924-.567 0-.286.146-.59.417-.864.557-.566 1.19-.835 1.909-.835Zm6.292-3.191c-.484.008-.886.214-1.193.626-.282.375-.417.811-.417 1.312 0 .468.125.88.387 1.223.28.371.652.582 1.104.626.529 0 .946-.137 1.252-.388 0 .965-.334 1.606-.984 1.909 0-.032-.034-.11-.119-.239-.08-.129-.143-.232-.179-.268-.178-.178-.363-.274-.537-.298.045.008-.1.03-.447.03-.412.088-.626.368-.626.864 0 .465.347.78 1.014.925.323.069.606.036.864-.09l1.76 2.565.268-.209-1.61-2.535c.925-.75 1.414-1.698 1.491-2.833.016-.266.03-.432.03-.477-.02-.557-.126-1-.328-1.372-.509-.924-1.08-1.38-1.73-1.371Zm1.312.119.835.835h5.19v2.386c-.433-.72-1.044-1.11-1.82-1.134-.78-.028-1.475.26-2.117.865-.166.19-.29.46-.358.776 0 .61.182 1.132.537 1.58.448.562.967.863 1.58.895.303.016.685-.065 1.134-.239.391-.153.74-.335 1.044-.537v2.178l1.073 1.073V4.981h7.068v2.594c-.396-.646-.97-.954-1.73-.954-.597 0-1.099.175-1.49.567-.392.387-.597.893-.597 1.49 0 .586.214 1.062.626 1.462.416.4.935.626 1.521.626.27 0 .555-.071.895-.208.339-.142.601-.314.775-.507v1.76l1.014 1.013V8.858c.263-.376.528-.696.835-.955.311-.262.591-.397.805-.417.453-.045.77.027.984.209.336.29.507.624.507.984 0 .4-.198.768-.626 1.103-.194.154-.59.36-1.163.627l.447.864c.57-.23.986-.521 1.253-.864.355-.445.537-.931.537-1.432 0-.626-.223-1.152-.627-1.58-.403-.433-.903-.627-1.52-.627-.239 0-.501.043-.776.12-.133.036-.25.077-.388.178-.056.04-.147.13-.268.239V4.981h6.83v6.83l1.013 1.013V4.981h2.058l-.835-.835H54.366Zm-1.431.328c.404-.008.697.204.895.656.149.343.208.754.208 1.223 0 .545-.146.856-.477.924-.513 0-.89-.278-1.103-.835a2.575 2.575 0 0 1-.18-.924c0-.695.233-1.036.657-1.044Zm6.143 2.744c.67 0 1.064.142 1.193.417 0 .25-.158.538-.477.865-.634.654-1.342.984-2.117.984-.618 0-.925-.187-.925-.567 0-.286.147-.59.418-.864.557-.566 1.19-.835 1.908-.835Zm7.814.268c.13-.014.27 0 .417 0 .46 0 .868.132 1.223.447v.209c0 .42-.283.852-.865 1.312-.553.436-1.063.656-1.49.656-.3 0-.517-.077-.687-.238-.206-.202-.292-.474-.268-.805.04-.525.271-.938.716-1.253.242-.173.562-.285.954-.328Zm10.177-3.349a21.179 21.179 0 0 0-.77-1.126c-.803-1.079-1.268-1.686-1.393-1.824C74.191.396 73.536 0 72.943 0c-.428 0-.927.085-1.496.254l1.103 1.121c.383-.056.662-.085.835-.085.562 0 1.2.348 1.915 1.042a7.959 7.959 0 0 1 1.405 1.805h.364m4.227-.11c-.485.008-.886.214-1.193.626-.282.375-.417.811-.417 1.312 0 .468.125.88.387 1.223.279.371.651.582 1.104.626.529 0 .945-.137 1.252-.388 0 .965-.334 1.606-.984 1.909 0-.032-.034-.11-.12-.239-.08-.129-.142-.232-.178-.268-.178-.178-.363-.274-.537-.298.045.008-.1.03-.447.03-.412.088-.626.368-.626.864 0 .465.347.78 1.014.925.323.069.606.036.864-.09l1.76 2.565.268-.209-1.61-2.535c.925-.75 1.414-1.698 1.491-2.833.016-.266.03-.432.03-.477-.02-.557-.126-1-.328-1.372-.51-.924-1.08-1.38-1.73-1.371Zm-.12.447c.405-.008.698.204.895.656.15.343.21.754.21 1.223 0 .545-.147.856-.478.924-.513 0-.89-.278-1.103-.835a2.575 2.575 0 0 1-.18-.924c0-.695.233-1.036.657-1.044Zm2.084.5a2.676 2.676 0 0 0-.667-.837h5.361l.842.836h-2.09v7.851l-.993-1.018V4.973H83.26m8.802 1.46-.879.879-.878-.879.878-.878.879.878m.006 4.404-.885.885-.878-.885.878-.878.885.878"/></svg>
